X: 1411
T: An Tobar Glé
R: jig
M: 6/8
K: Dmajor
A|~D3 FEA|D.F/.G/A d2A|~D3 FEF|AdF GFE|
.DAD FEA|D.F/.G/A de/f/g|agf~g2 e|dcB AFA|
~D3 FEA|D.F/.G/c d2A|~D3 FEF|AdF GFE|
.DAD FEA|D.F/.G/A de/f/g|agf~g2 e|dcB AFA|
dec d.cB|AFA {B}AFA|ded .dcd|e{f}ef gfe|
.g/.f/ef ~g2e|dec dcB|AFA ~D3|FDA GFE:|

